!!!OTL: Exultet 1
!!!SMS: B1: Bari, Archivio del Capitolo metropolitano
**kern	**silbe
*	*LLatin
*staff13	*staff13
!B1	!B1
=1-	=1-
*clefGv2	*
*k[]	*
(8F	E-
8G	.
4A)	.
8G	XUL
8G	-TET
8G	Iam
8F	an-
=2-	=2-
(8F	-ge-
8G)	.
8G	-li-
8G	-ca
(8G	tur-
8A)	.
(8A	-ba
8G)	.
=3-	=3-
4F	ce-
(8G	-lo-
8A	.
4G)	.
4F	-rum.
=4-	=4-
4F	E-
(8G	xul
8A)	.
4G	-tent
4G	di-
=5-	=5-
(4G	-vi-
4A)	.
(8A	-na
8G)	.
4F	my-
=6-	=6-
(8G	-ste-
8A)	.
(4G	-ri-
4F)	.
4F	-a.
=7-	=7-
8F	et
8F	pro
8A	tan-
8G	-ti
8G	re-
8G	-gis
8F	vic-
(16F	-to-
16G)	.
=8-	=8-
8G	-ri-
8G	-a.
8G	tu-
8F	-ba
8G	in-
8F	-to-
(16G	-net
16A	.
16G	.
16A)	.
=9-	=9-
8G	.
8F	.
(16F	sa-
16G	.
8A)	.
(16G	-lu-
16A	.
8G)	.
8F	-ta-
8F	-ris.
=10-	=10-
(16F	Gau-
16G	.
8A)	.
8G	-de-
8G	-at
8G	se
8G	tan-
8F	-tis
(16F	tel-
16G)	.
=11-	=11-
8G	-lus
8G	in-
8G	-ra-
(16G	-di-
16F)	.
(8G	-a-
8A)	.
(8A	-ta
8G)	.
=12-	=12-
4F	ful-
(8G	-go-
8A)	.
(8G	-ri-
8F)	.
4F	-bus.
=13-	=13-
8F	et
8F	e-
8A	-ter-
8G	-ni
(16F	re-
16G)	.
8G	-gis
4G	splen-
=14-	=14-
(8G	-do-
8A)	.
(4A	-re
4G)	.
4F	lu-
=15-	=15-
(4G	-stra-
4A	.
4G)	.
4F	-ta.
=16-	=16-
8F	to-
8A	-ti-
8G	-us
8G	or-
8G	-bis
8F	se
(8F	sen-
8G)	.
=17-	=17-
8G	-ti-
8G	-at.
8G	a-
8F	-mi-
(8G	-sis-
8A)	.
(8G	.
8A)	.
=18-	=18-
8G	.
8F	.
(16F	-se
16G	.
8A)	.
(16G	ca-
16A	.
16G)	.
16F	-li-
8F	-gi-
8F	-nem.
=19-	=19-
(16G	Le-
16A)	.
8G	-te-
8G	-tur
8G	et
(16G	ma-
16A)	.
(16A	-ter
16G)	.
8F	ec-
(16G	-cle-
16A)	.
=20-	=20-
(16G	-si-
16F)	.
16F	-a.
16A	tan-
16G	-ti
(16F	lu-
16G)	.
16G	-mi-
16G	-nis
16G	a-
(16G	-dor-
16F)	.
(16G	-na-
16A)	.
(16A	-ta
16G)	.
=21-	=21-
4F	ful-
(8G	-go-
8A)	.
(8G	-ri-
8F)	.
4F	-bus.
=22-	=22-
8F	et
8A	mag-
8G	-nis
8G	po-
8G	-pu-
8G	-lo-
8F	-rum
(16F	vo-
16G)	.
=23-	=23-
8G	-ci-
8G	-bus.
8F	hec
(8G	au-
8A)	.
(8G	.
8A)	.
8G	.
=24-	=24-
8F	.
4A	-la
(8G	re-
8A	.
8G)	.
8F	-sul-
8F	-tet.
=25-	=25-
(8G	Qua-
8A)	.
8G	prop
8G	-ter
8G	a-
8A	-stan-
8G	-ti-
8F	-bus
=26-	=26-
(8F	vo-
8G)	.
4G	-bis
(8G	fra-
8A)	.
(8A	-tres
8G)	.
=27-	=27-
4F	ka-
(8G	-ris-
8A)	.
(8G	-si-
8F)	.
8F	-mi.
=28-	=28-
8F	ad
8A	tam
8G	mi-
8G	-ram
8G	sanc-
8F	-ti
(8F	hu-
8G)	.
=29-	=29-
8G	-ius
8G	lu-
4G	-mi-
(8G	-nis
8A)	.
(8A	cla-
8G)	.
=30-	=30-
4F	-ri-
(4G	-ta-
8A	.
8G)	.
4F	-tem.
=31-	=31-
8F	u-
8A	-na
8G	me-
8G	-cum
8G	que-
8F	-so
(16F	de-
16G)	.
8G	-i
=32-	=32-
16G	om-
16G	-ni-
16F	-po-
(16F	-ten-
16G)	.
16G	-tis.
16G	mi-
16G	-se-
16F	-ri-
8G	-cor-
16F	-di-
(16G	-am
16A	.
16G	.
16A)	.
=33-	=33-
16G	.
8F	.
(16F	in-
16G	.
8A)	.
(16G	-vo-
8A	.
8G)	.
8F	-ca-
8F	-te.
=34-	=34-
(16F	Ut
16G	.
16A)	.
16G	qui
8G	me
16G	non
16G	me-
8F	-is
(16F	me-
16G)	.
8G	-ri-
16G	-tis.
16G	in
=35-	=35-
16G	le-
8G	-vi-
16G	-ta-
16F	-rum
(16F	nu-
8G)	.
16G	-me-
16G	-rum.
8G	dig-
16G	-na-
(16G	-tus
8F)	.
=36-	=36-
(16G	est
8A)	.
(16A	ag-
8G)	.
8F	-gre-
(16G	-ga-
16A	.
8G)	.
4F	-re.
=37-	=37-
4A	lu-
4G	-mi-
4F	-nis
(8F	su-
8G)	.
=38-	=38-
4G	-i
4G	gra-
(8G	-ti-
8A)	.
(8A	-am
8G)	.
=39-	=39-
4F	in-
(8G	-fun-
8A	.
4G)	.
4F	-dens.
=40-	=40-
4A	ce-
8G	-re-
8F	-i
(16F	hu-
16G)	.
8G	-ius.
4G	lau-
=41-	=41-
8G	-dem
8F	im-
(8G	-ple-
8A	.
8G	.
8A)	.
8G	.
8F	.
=42-	=42-
4A	-re
(8G	pre-
8A	.
8G)	.
8F	-ci-
8F	-pi-
8F	-at.
=43-	=43-
(16G	Per
16A)	.
8G	do-
8G	-mi-
8F	-num
(16F	no-
16G)	.
8G	-strum
8G	ie-
8F	-sum
=44-	=44-
(8F	chri-
8G)	.
4G	-stum
(8G	fi-
8A)	.
(8A	-li-
8G)	.
=45-	=45-
4F	-um
(4G	su-
8A	.
8G)	.
4F	-um.
=46-	=46-
8F	vi-
8A	-ven-
8G	-tem
(16F	se-
&(16G&))	.
8G	-cum
(16G	at-
16A)	.
(16A	-que
16G)	.
8F	reg-
=47-	=47-
8G	-nan-
8F	-tem.
16F	in
16F	u-
8G	-ni-
8A	-ta-
8G	-te
16G	spi-
(16G	-ri-
16F)	.
(16G	-tus
=48-	=48-
8A)	.
(8A	sanc-
8G)	.
8F	-ti
(8G	de-
8A	.
8G)	.
8F	-us.
=49-	=49-
8F	Per
8G	om-
8G	-ni-
8F	-a
8G	se-
8F	-cu-
(8G	-la
8A)	.
=50-	=50-
(8G	.
8A)	.
8G	.
8F	.
(16F	se-
16G	.
8A)	.
(8G	-cu-
8A	.
=51-	=51-
8G)	.
8F	-lo-
4F	-rum.
4E	A-
4F	-men.
=52-	=52-
8F	DO-
(8G	MI
8A)	.
8B	-NUS
(8B	.
8A)	.
(8G	VO-
8F)	.
=53-	=53-
(8G	BI
8A	.
4G)	.
4F	-SCUM.
4G	Et
=54-	=54-
4G	cum
(8G	spi-
8A)	.
8G	-ri-
(16F	-tu
16G)	.
(16G	tu-
16A	.
16G)	.
16G	-o.
=55-	=55-
(16F	SUR-
16G	.
16A)	.
8B	.
(16B	.
16A)	.
8G	-SUM
(8G	COR-
8A)	.
8F	-DA.
=56-	=56-
8F	A-
(8G	-be-
8A)	.
4A	-mus
8A	ad
(8G	do-
8A)	.
=57-	=57-
(4G	-mi-
4F)	.
4F	-num.
4r	.
=58-	=58-
(16F	GRA-
16G	.
16A)	.
(16G	TI
16F)	.
(16F	-AS
16G)	.
16B	A-
(16B	.
16A)	.
(16G	GA
16A)	.
8A	-MUS
8G	DO-
=59-	=59-
16F	MI
(16G	-NO
16A	.
16G	.
16A)	.
16G	.
16F	.
(16F	DE-
16G	.
16A)	.
(16G	-O
16A	.
16G)	.
8F	NO-
16F	-STRO
=60-	=60-
1r	.
=61-	=61-
(16F	VE-
16G	.
16A)	.
(16G	-RE
16A	.
16G)	.
(16A	QUI-
16G)	.
8F	-A
8G	DIG-
4G	-NUM
=62-	=62-
8G	ET
8G	IU-
(16F	-STUM
8G)	.
8G	EST
8F	PER
8G	CHRI-
8F	-STUM
(16G	DO-
=63-	=63-
16A)	.
(16G	.
16A)	.
16G	.
8F	.
8A	MI
(16G	-NUM
16A	.
8G)	.
8F	NO-
8F	-STRUM
=64-	=64-
(16G	Qui
16A)	.
16G	nos
8G	ad
8G	noc-
8F	-tem
(16F	i-
16G)	.
8G	-stam
16G	non
8G	te-
=65-	=65-
8F	-ne-
(16F	-bra-
8G)	.
16G	-rum.
16G	sed
8G	lu-
8G	-mi-
16F	-nis
(16F	ma-
16G)	.
8G	-trem.
=66-	=66-
8G	per-
16G	-du-
(16G	-ce-
8A)	.
(16A	-re
16G)	.
8F	dig-
(16G	-na-
8A)	.
(16G	-tus
16F)	.
16F	est.
=67-	=67-
16F	in
8A	qua
8G	e-
(16F	xhor
8G)	.
16G	-ta
8G	est
16F	ab
(16F	in-
16G)	.
16G	-fe-
16G	-ris.
=68-	=68-
8G	in
8G	e-
8G	-ter-
16F	-na
(16F	di-
16G)	.
8G	-e.
16G	re-
16F	-sur-
8G	rec
16F	-ti-
=69-	=69-
(16G	-o
16A	.
16G	.
16A)	.
16G	.
8F	.
8A	mor-
(16G	-tu-
16A	.
8G)	.
8F	-o-
16F	-rum.
=70-	=70-
(64F	So-
64G	.
32A)	.
32G	-lu-
16G	-tis
32G	quip-
16F	-pe
(32F	ne-
32G)	.
32G	xi
16G	-bus
16G	et
32F	cal-
(32F	-ca-
32G)	.
16G	-to
(32G	mor-
32A)	.
(32A	-tis
16G)	.
32F	a-
(32G	-cu-
16A)	.
(32G	-le-
32F)	.
32F	-o.
=71-	=71-
16F	re-
16G	-sur-
8A	-re-
16G	-xit
16F	a
(16F	mor-
16G)	.
16G	-tu-
8G	-is.
16F	qui
(16F	fu-
16G)	.
16G	-e-
16G	-rat
=72-	=72-
16G	in-
8F	-ter
(16G	mor-
16A	.
16G	.
16A)	.
16G	.
16F	.
8A	-tu-
(16G	-os
16A	.
16G)	.
16F	li-
16F	-ber.
=73-	=73-
(16G	Un-
16A)	.
8G	-de
8G	et
8G	nox
8G	ip-
8G	-sa
8F	sy-
(16F	-de-
16G)	.
=74-	=74-
8G	-re-
8G	-o
8G	pro
8G	ec-
8G	-cle-
8G	-si-
(8G	-a-
8A)	.
=75-	=75-
(8A	-rum
8G)	.
8F	or-
(8G	-na-
8A	.
8G)	.
4F	-tu.
=76-	=76-
8F	ce-
8G	-re-
4A	-o-
8G	-rum
8F	splen-
(8F	-do-
8G)	.
=77-	=77-
8G	-re.
8G	tam-
8F	-quam
(8F	di-
8G)	.
8G	-es
8G	il-
8G	-lu-
=78-	=78-
8G	-mi-
(16G	-na-
8A)	.
(16A	-ta
8G)	.
8F	col-
(16G	-lu-
16A	.
8G)	.
8F	-cet.
=79-	=79-
8F	qui-
8F	-a
8G	in
8A	e-
8G	-ius
8G	ma-
8F	-tu-
(16F	-ti-
16G)	.
=80-	=80-
8G	-no
8G	re-
(16G	-sur-
16A)	.
8A	-gen-
8F	-te
(16G	chri-
16A	.
8G)	.
16F	-sto.
16A	mors
=81-	=81-
16G	oc-
8G	-ci-
(16G	-dit
8A)	.
(16A	re-
16G)	.
8F	-demp-
(16G	-to-
16A	.
8G)	.
8F	-rum.
=82-	=82-
4F	et
4F	e-
4G	mer
4F	-sit
=83-	=83-
(8G	vi-
8A	.
8G	.
8A)	.
8G	.
8F	.
4A	-ta
=84-	=84-
(8G	cre-
8A	.
8G)	.
8F	-den-
4F	-ti-
4F	-um.
=85-	=85-
(16F	Ve-
16G	.
16A)	.
16G	-re
8G	tu
8G	pre-
8G	-ti-
(16G	-o-
8A)	.
(16A	-sus
8G)	.
=86-	=86-
8F	es
(16G	o-
8A)	.
(16G	-pi-
8F)	.
8F	-fex.
(16F	for-
16G	.
8A)	.
8G	-ma-
=87-	=87-
4A	-tor
8F	es
(8G	om-
8A)	.
(8G	-ni-
8F)	.
8F	-um.
=88-	=88-
4F	cu-
4G	-i
4A	qua-
8G	-li-
8G	-tas
=89-	=89-
8G	in
8F	a-
(8F	-gen-
8G)	.
8G	-di
8G	non
(8G	fu-
8A)	.
=90-	=90-
(8A	-it
&(8G&))	.
8F	of-
(8G	-fi-
8A)	.
(8G	-ci-
8F)	.
8F	-o.
=91-	=91-
4F	sed
4G	in
4F	ser-
(8G	-mo-
8A)	.
=92-	=92-
(8G	.
8A)	.
8G	.
8F	.
4A	-nis
(4G	im-
=93-	=93-
8A	.
8G)	.
4F	-pe-
4F	-ri-
4F	-o.
=94-	=94-
(16G	Qui
8A)	.
8G	or-
(16F	-na-
16G)	.
16G	-tum
8G	at-
16G	-que
(16G	a-
16A)	.
(16A	-bi-
16G)	.
16F	-tum
=95-	=95-
(16G	mun-
16A	.
16G)	.
8F	-di.
16F	nec
16F	ad
8F	am-
16G	-pli-
8A	-an-
16G	-dum
8G	qua-
16G	-si
=96-	=96-
(16G	i-
8A)	.
(16A	-nops
16G)	.
8F	po-
(8G	-ten-
8A)	.
(16G	-ti-
8F)	.
8F	-e.
=97-	=97-
8F	nec
8F	ad
8G	di-
4A	-tan-
8G	-dum
8G	qua-
8G	-si
=98-	=98-
8F	e-
(8F	-ge-
8G)	.
8G	-nus
8G	glo-
8F	-ri-
(16G	-e
16A	.
16G	.
16A)	.
=99-	=99-
16G	.
16F	.
8A	con-
(8G	-di-
16A	.
16G)	.
4F	-di-
4F	-sti.
=100-	=100-
(16G	To-
16A)	.
8G	-tus
(16G	ac
16A)	.
(16A	ple-
16G)	.
8F	-nus
(16G	in
16A)	.
(16G	te
16F)	.
8F	es.
=101-	=101-
8F	qui
8F	dum
8F	per
8G	vir-
8A	-gi-
8G	-ne-
8F	-a
(16F	vis-
16G)	.
=102-	=102-
8G	-ce-
8G	-ra
(16G	mun-
16A)	.
(16A	-do
16G)	.
8F	il-
(16G	-la-
16A)	.
(16G	-be-
16F)	.
8F	-ris.
=103-	=103-
8F	vir-
8F	-gi-
8G	-ni-
4A	-ta-
8G	-tem
(8F	e-
8G)	.
=104-	=104-
8G	-ti-
8G	-am.
8G	cre-
8F	-a-
(16G	-tu-
8A	.
16G	.
16A)	.
16G	.
8F	.
=105-	=105-
4A	-re
(8G	com-
8A	.
8G)	.
8F	-men-
4F	-das.
=106-	=106-
(8G	A-
8A)	.
4G	-pes
(8F	si-
8G)	.
4G	qui
=107-	=107-
4G	-dem
4G	dum
(8G	o-
8A)	.
(8A	-re
8G)	.
=108-	=108-
4F	con-
(8G	-ci-
8A)	.
(8G	-pi-
8F)	.
4F	-unt.
=109-	=109-
(16F	o-
16G	.
8A)	.
(8A	-re
8G)	.
4F	par-
(8G	-tu-
8A)	.
=110-	=110-
(8G	-ri-
&(8F&))	.
4F	-unt.
8A	ca-
(16A	.
16G)	.
(8G	-sto
8F)	.
=111-	=111-
(8G	cor-
4A)	.
(8G	-po-
4F)	.
4F	-re.
=112-	=112-
4A	non
8G	fe-
8G	-do
8G	de-
8F	-si-
8G	-de-
8F	-ri-
=113-	=113-
(8G	-o
8A)	.
(8G	.
8A)	.
8G	.
8F	.
(16F	co-
16G	.
8A)	.
=114-	=114-
(4G	-pu-
8A	.
8G)	.
4F	lan
4F	-tur.
=115-	=115-
(8F	De-
8G	.
4A)	.
4G	-ni-
4G	-que
=116-	=116-
4G	vir-
8G	-gi-
8G	-ni-
(8G	-ta-
8A)	.
(8A	-tem
8G)	.
=117-	=117-
4F	ser-
(4G	van
8A	.
8G)	.
4F	-tes.
=118-	=118-
8F	po-
(8F	-ste-
8G	.
8A)	.
8G	-ri-
(8A	-ta-
8G)	.
8F	-tem
=119-	=119-
(8G	ge-
8A)	.
(8G	-ne-
8F)	.
4F	-rant.
4A	so-
=120-	=120-
(8A	-bo-
8G)	.
(8G	-le
8F)	.
(8G	gau-
8A	.
8G)	.
8F	-dent.
=121-	=121-
4A	ma-
(16A	-tres
8G)	.
(16G	di-
8F)	.
(8G	cun
8A	.
8G)	.
=122-	=122-
4F	-tur.
4F	in-
(16F	tac
16G	.
8A)	.
(8A	-te
8G)	.
=123-	=123-
4F	per-
(8G	-du-
8A	.
4G)	.
4F	-rant.
=124-	=124-
4A	fi-
(8A	-li-
8G)	.
(8G	-os
8F)	.
(8G	ge-
8A)	.
=125-	=125-
(8G	-ne-
8F)	.
4F	-rant.
4F	et
(16G	vi-
16A	.
16G	.
16A)	.
=126-	=126-
16G	.
8F	.
4A	-ros
(16G	non
16A	.
16G)	.
8F	no-
4F	-runt.
=127-	=127-
(16F	Flo-
16G	.
16A)	.
(16F	-re
16G	.
16F)	.
16A	u-
(16A	tun
16G)	.
16F	-tur
(16G	co-
16A)	.
(16G	niu
16F)	.
8F	-ge.
=128-	=128-
(16F	flo-
16G	.
8A)	.
(16F	-re
16G	.
8F)	.
4A	fun-
(8A	-gun-
8G)	.
=129-	=129-
4F	-tur
(8G	ge-
8A)	.
(8G	-ne-
8F)	.
4F	-re.
=130-	=130-
4A	flo-
8G	-re
(8A	do-
8G)	.
8F	-mos
(8G	in-
8A)	.
=131-	=131-
(8G	stru
8F)	.
8F	-unt.
(16G	flo-
16A)	.
8G	-re
8G	di-
(8G	-vi-
8A)	.
=132-	=132-
(8A	-ti-
8G)	.
8F	-as
(8G	con-
8A)	.
(8G	-ve-
8F)	.
8F	-unt.
=133-	=133-
4G	flo-
4F	-re
(4G	ce-
4A	.
=134-	=134-
8G	.
8A)	.
8G	.
8F	.
(16F	-ram
16G	.
8A)	.
(4G	con-
=135-	=135-
8A	.
8G)	.
4F	-fi-
4F	-ci-
4F	-unt.
=136-	=136-
(8F	O
8G	.
4A)	.
4G	am-
4F	-mi-
=137-	=137-
(8F	ran
8G)	.
4G	-dus
(8G	a-
8A)	.
(8A	-pi-
8G)	.
=138-	=138-
4F	-um
(4G	fer-
4A)	.
4F	-vor.
=139-	=139-
8F	ad
8G	com-
4A	-mu-
8G	-ne
(8F	o-
8G)	.
8G	-pus.
=140-	=140-
8G	pa-
8G	-ci-
8G	-fi-
8G	-ca
(8G	tur-
8A)	.
(8A	-ba
8G)	.
=141-	=141-
4F	con-
(8G	cur
8A	.
4G)	.
4F	-runt.
=142-	=142-
8F	et
8F	o-
8G	-pe-
4A	ran
8G	-ti-
8F	-bus
(16F	plu-
16G)	.
=143-	=143-
8G	-ri-
8G	-mis.
8G	u-
8G	-na
8F	au-
(16G	-ge-
16A	.
16G	.
16A)	.
16G	.
16F	.
=144-	=144-
4A	-tur
(8G	sub-
16A	.
16G)	.
8F	-stan-
4F	-ti-
8F	-a.
=145-	=145-
(4G	O
4A)	.
4G	in-
4F	-vi-
=146-	=146-
(8F	-si-
8G)	.
4G	-bi-
(8G	-le
8A)	.
4A	ar-
=147-	=147-
4F	-ti-
(8G	-fi-
8A)	.
(8G	-ci-
8F)	.
4F	-um.
=148-	=148-
8A	pri-
8G	-mo
(8F	cul-
8G)	.
8G	-mi-
4G	-na
8G	pro
=149-	=149-
4G	fun-
4G	-da-
(8G	-men-
8A)	.
(8A	-tis
8G)	.
=150-	=150-
4F	e-
(8G	-di-
8A)	.
(8G	-fi-
8F)	.
4F	-cant.
=151-	=151-
8F	et
8A	tam
8G	pon-
8F	-de-
(16F	ro
16G)	.
(16G	-sam
16A)	.
8A	mel-
8F	-lis
=152-	=152-
(8G	sar-
8A)	.
(16G	-ci-
16F)	.
8F	-nam.
8F	pen-
8A	-den-
8G	-ti-
8G	-bus
=153-	=153-
4G	do-
8F	-mi-
(8F	-ci-
8G)	.
4G	-li-
8G	-is.
=154-	=154-
4F	im-
4G	-po-
4F	-ne-
(8G	-re
8A)	.
=155-	=155-
(8G	.
8A)	.
8G	.
4F	.
4A	non
8r	.
=156-	=156-
(8G	ve-
8A	.
4G)	.
4F	ren
4F	-tur.
=157-	=157-
(16F	O
16G	.
8A)	.
4G	vir-
4G	-gi-
4G	-ni-
=158-	=158-
(8G	-ta-
4A)	.
(8A	-tis
4G)	.
4F	in-
=159-	=159-
(8G	-si-
4A)	.
(8G	gni
4F)	.
4F	-a.
=160-	=160-
4F	que
8A	non
8G	pos-
4G	-ses-
8G	-so-
8F	-ri
=161-	=161-
(8F	dam-
8G)	.
8G	-na.
8G	sed
8G	si-
8G	-bi
(8G	lu-
8A)	.
=162-	=162-
(8A	-cra
8G)	.
8F	con-
(8G	vec
8A	.
8G)	.
4F	-tant.
=163-	=163-
8A	au-
8G	-fe-
4G	-runt
8G	qui-
8F	-dem
(8F	pre-
8G)	.
=164-	=164-
16G	-dam.
8G	et
8F	cum
(16F	pre-
16G)	.
8G	-da
16G	mi-
8G	-ni-
8F	-me
(16G	tol-
16A)	.
=165-	=165-
(16G	.
&(16A&))	.
16G	.
16F	.
4A	-lunt
(16G	pec-
16A	.
8G)	.
8F	-ca-
8F	-tum.
=166-	=166-
(16F	Spo-
16G	.
16A)	.
16G	-li-
8G	-ant
8G	qui-
(16G	-dem
16A)	.
(16A	flo-
16G)	.
8F	-rum
(8G	cu-
=167-	=167-
16A	.
16G)	.
16F	-tem.
16F	et
8A	mor-
8G	-su-
16G	-um
8F	non
8G	an-
8F	-no-
(16G	-tant
=168-	=168-
16A	.
16G	.
16A)	.
16G	.
8F	.
8A	ci-
(16G	-ca-
16A	.
8G)	.
8F	-tri-
8F	-cem.
=169-	=169-
(8G	Sed
8A)	.
4G	in-
4F	-ter
(8F	hec
8G)	.
=170-	=170-
4G	que
(8G	di-
8A)	.
(8A	nu
&(8G&))	.
4F	-me-
=171-	=171-
(8G	-ra-
4A)	.
(8G	-vi-
4F)	.
4F	-mus.
=172-	=172-
8A	hu-
4G	-ius
(16F	ce-
16G)	.
8G	-re-
4G	-i
8G	gra-
=173-	=173-
4F	-ti-
(8G	-am
8A)	.
(8G	.
8A)	.
8G	.
8F	.
=174-	=174-
(16F	pre-
16G	.
8A)	.
(8G	-di-
8A	.
8G)	.
4F	-ce-
8F	-mus.
=175-	=175-
(16F	Cu-
16G	.
8A)	.
(16F	-ius
16G	.
8F)	.
8A	o-
(16A	-dor
8G)	.
(16G	su-
8F)	.
=176-	=176-
(8G	-a-
8A)	.
(8G	-vis
8F)	.
4F	est.
(16F	et
16G	.
8A)	.
=177-	=177-
4A	flam-
(16G	-ma
16F)	.
(8G	y-
8A)	.
(8G	-la-
8F)	.
8F	-ris.
=178-	=178-
4A	non
4G	te-
4G	-tro
4F	o-
=179-	=179-
(8F	-do-
8G)	.
4G	-re
4G	ar-
(8G	-vi-
8A)	.
=180-	=180-
(8A	-na
8G)	.
8F	de-
(8G	-su-
8A	.
8G)	.
4F	-dat.
=181-	=181-
4F	sed
4F	io-
4G	cun
4A	dis
=182-	=182-
4G	-si-
4G	-ma
(8G	su-
8A)	.
(8A	-a-
8G)	.
=183-	=183-
4F	-vi-
(8G	-ta-
8A	.
4G)	.
4F	-te.
=184-	=184-
4F	qui
8F	pe-
8G	-re-
4A	gri
4G	-nis
=185-	=185-
4G	non
4G	in-
4G	-fi-
(8G	-ci-
8A)	.
=186-	=186-
(8A	-tur
8G)	.
8F	pig-
(8G	-men-
8A	.
8G)	.
4F	-tis.
=187-	=187-
8F	sed
4F	il-
8F	-lu-
8F	-mi-
8G	-na-
4F	-tur
=188-	=188-
(8G	spi-
8A)	.
(8G	.
4A)	.
8G	.
4F	.
=189-	=189-
4A	-ri-
(8G	-tu
8A	.
8G)	.
8F	sanc-
4F	-to.
=190-	=190-
(8G	Qui
8A)	.
8G	ut
8F	ac-
(16F	-cen-
16G)	.
8G	-sus
8G	pro-
8G	pri
=191-	=191-
8F	-as
(8F	cor-
8G)	.
8G	-po-
8G	-ris.
8G	com-
(8G	-pa-
8A)	.
=192-	=192-
(8A	-ges
8G)	.
8F	de-
(8G	-pa-
8A	.
8G)	.
4F	-scit.
=193-	=193-
8A	i-
8G	-ta
8G	co-
8G	-a-
(16G	-go-
16A)	.
(16A	-la-
16G)	.
8F	-tas
(16G	la-
16A)	.
=194-	=194-
(16G	-cri-
16F)	.
8F	-mas.
8F	in
8G	ri-
8G	vu
8F	-los
(8G	fun-
8A)	.
=195-	=195-
(16G	.
16A)	.
16G	.
8F	.
(16F	-dit
16G	.
8A)	.
(16G	gut-
16A	.
16G)	.
8F	-ta-
8F	-rum.
=196-	=196-
(16F	Qui-
16G	.
16A)	.
16G	-que
16G	se-
(16G	-mi-
16A)	.
(16A	-u-
8G)	.
8F	-sta
(16G	mem-
16A	.
16G)	.
16F	-bra.
=197-	=197-
8F	am-
8A	bro
8G	-se-
16F	-o
(16F	san-
8G)	.
8G	gui
8G	-ne.
8G	fla-
=198-	=198-
8G	-ve-
8G	-a
(16G	ve-
8A)	.
(16A	-na
16G)	.
8F	di-
(16G	stol
16A	.
16G)	.
8F	-lit.
=199-	=199-
4A	a-
4G	-bi-
4F	-tum
8G	vi-
8F	-vit
=200-	=200-
(8G	i-
8A)	.
(8G	.
8A)	.
8G	.
8F	.
4A	-gnis
=201-	=201-
(8G	hu-
8A	.
4G)	.
4F	-mo-
4F	-rem.
=202-	=202-
(16G	In
16A)	.
16G	hu-
16F	-ius
(16F	au-
16G)	.
8G	-tem
8G	ce-
8G	-re-
8G	-i
(16G	lu-
16A)	.
=203-	=203-
(16A	-mi-
16G)	.
8F	-nis
(16G	cor-
16A)	.
(16G	-po-
16F)	.
8F	-re.
16A	te
16G	om-
(16F	-ni-
16G)	.
8G	-po-
=204-	=204-
(16G	-tens
16A)	.
8A	po-
8F	stu
(8G	-la-
8A	.
8G)	.
4F	-mus.
=205-	=205-
8F	ut
8G	su-
8A	-per-
8G	-ne
8G	be-
8G	-ne-
8G	dic
8F	-ti-
=206-	=206-
8G	-o-
8F	-nis.
(8G	mu-
8A)	.
(16G	.
16A)	.
16G	.
16F	.
(16F	-nus
16G	.
8A)	.
=207-	=207-
(8G	ac-
8A	.
8G)	.
8F	com
4F	-mo-
4F	-des.
=208-	=208-
(16F	Ut
16G	.
8A)	.
8G	si
8G	quis
4F	hinc
(8F	sump-
8G)	.
=209-	=209-
8G	-se-
8G	-rit
8G	ad-
8G	-ver-
4G	-sus
(8G	fla-
8A)	.
=210-	=210-
(8A	-bra
8G)	.
4F	ven-
(8G	-to-
8A	.
8G)	.
8F	-rum.
=211-	=211-
8F	ad
8F	ver-
8G	-sus
8A	spi-
8G	-ri-
(16G	-tus
16A)	.
(16A	pro-
16G)	.
8F	-cel-
=212-	=212-
(16G	-la-
16A	.
16G)	.
16F	-rum.
16A	sit
16G	e-
8F	-i
(16F	do-
8G)	.
16G	-mi-
8G	-ne
16G	sin-
16G	-gu-
=213-	=213-
(16G	-la-
8A)	.
(16A	-re
8G)	.
8F	per-
(16G	-fu-
8A)	.
(16G	-gi-
8F)	.
8F	-um.
=214-	=214-
4F	sit
4G	mu-
4G	-rus
4F	ab
=215-	=215-
(8G	ho-
8A)	.
(8G	.
8A)	.
8G	.
8F	.
4A	-ste
=216-	=216-
(8G	fi-
8A	.
4G)	.
8F	-de-
4F	-li-
8F	-bus.
=217-	=217-
(16G	Sal-
16A)	.
8G	-vum
8G	fac
8G	po-
8G	-pu-
8G	-lum
8G	tu-
8F	-um
=218-	=218-
(16F	do-
16G)	.
8G	-mi-
8G	-ne.
8G	et
8G	be-
8G	-ne-
8G	-dic
8G	he-
=219-	=219-
8G	-re-
(16G	-di-
8A)	.
(16A	-ta-
8G)	.
8F	-tem
(16G	tu-
16A	.
8G)	.
8F	-am.
=220-	=220-
8F	ut
8F	re-
8G	-de-
4A	-un-
4G	-tes
8G	ad
=221-	=221-
8G	fe-
8G	-sti-
(16G	-vi-
16A)	.
(16A	-ta-
16G)	.
4F	-tem
(16G	pa-
16A	.
8G)	.
=222-	=222-
4F	-sche.
8F	per
4A	hec
4G	vi-
8F	-si-
=223-	=223-
(8F	-bi-
8G)	.
8G	-li-
4G	-bus
8G	et
8G	in-
8G	-vi-
=224-	=224-
8F	-si-
(8F	-bi-
8G)	.
8G	-li-
8G	-bus
8G	tu-
(8G	-is
8A)	.
=225-	=225-
(8A	i-
8G)	.
8F	-ni-
(8G	-an-
8A	.
8G)	.
4F	-tes.
=226-	=226-
4F	dum
4F	pre-
4A	sen
4G	-ti-
=227-	=227-
4G	-um
(8G	u-
4A)	.
(8A	-su-
4G)	.
=228-	=228-
4F	-fru-
(8G	-un-
8A	.
4G)	.
4F	-tur.
=229-	=229-
8F	fu-
8G	-tu-
4A	ro
4G	-rum
8G	de-
8F	-si-
=230-	=230-
8G	-de-
8F	-ri-
(8G	-a
8A	.
8G	.
8A)	.
8G	.
8F	.
=231-	=231-
(16F	ac-
16G	.
8A)	.
(8G	-cen-
8A	.
8G)	.
8F	dan
4F	-tur.
=232-	=232-
4F	U-
8A	-na
8G	cum
8G	be-
8F	-a-
(8F	-tis-
8G)	.
=233-	=233-
4G	-si-
4G	-mo
4G	pa-
4G	-pa
=234-	=234-
(16G	no-
8A)	.
(16A	-stro.
8G)	.
8F	ill.
(16G	.
16A	.
8G)	.
4F	.
=235-	=235-
4F	et
4G	an-
4A	-ti-
4G	-sti-
=236-	=236-
(4G	-te
4A)	.
(4A	no-
4G)	.
=237-	=237-
4F	-stro
(8G	ill.
8A	.
4G)	.
4F	.
=238-	=238-
8F	sed
8G	et
8A	om-
(16G	-ni-
16A)	.
(16A	-bus
16G)	.
8F	pre-
(16G	-sbi-
16A)	.
(16G	-te-
16F)	.
=239-	=239-
8F	-ris.
16A	di-
(16A	.
8G)	.
(16G	-a-
16F)	.
(16G	-co-
8A)	.
(16G	-ni-
8F)	.
8F	-bus.
=240-	=240-
8A	sub-
(8A	-di-
8G)	.
8F	-a-
(16G	-co-
8A)	.
(16G	-ni-
8F)	.
8F	-bus.
=241-	=241-
4F	cunc-
4G	-to-
4F	-que
(8G	cle-
8A)	.
=242-	=242-
(8G	.
4A)	.
8G	.
4F	.
4A	-ro
=243-	=243-
(8G	vel
8A	.
4G)	.
4F	ple-
4F	-be.
=244-	=244-
(16G	Me-
16A)	.
8G	-mo-
8G	-ra-
8F	-re
(16F	do-
16G)	.
8G	-mi-
8G	-ne
8G	fa-
=245-	=245-
16G	-mu-
8G	-lo-
16G	-rum
8F	tu-
(16F	-o-
16G)	.
16G	-rum.
8G	im-
16G	-pe-
16G	-ra-
8G	-to-
16G	-rum
=246-	=246-
16F	no-
(16F	-stro-
16G)	.
16G	-rum.
16G	ill
16G	.
16G	.
(16G	.
16A)	.
(16A	et
16G)	.
16F	ill.
(16G	.
16A	.
16G)	.
16F	.
=247-	=247-
8F	et
8A	cunc-
8G	-tum
8G	e-
8G	-xer-
(16G	-ci-
16A)	.
(16A	-tum
16G)	.
8F	e-
=248-	=248-
(16G	-o-
16A	.
16G)	.
16F	-rum.
16F	et
16G	om-
16G	-ni-
16F	-um
(16G	cir-
8A)	.
(16G	.
8A)	.
16G	.
16F	.
=249-	=249-
(16F	cum
16G	.
8A)	.
(8G	ad-
16A	.
16G)	.
8F	-stan-
8F	-ti-
4F	-um.
=250-	=250-
(8G	Qui
8A)	.
8G	vi-
8G	-vis
8F	cum
(8F	pa-
8G)	.
8G	-tre.
=251-	=251-
8G	et
(16G	spi-
16A)	.
(16A	-ri-
16G)	.
8F	-tu
(16G	sanc-
16A	.
8G)	.
8F	-to.
8F	et
=252-	=252-
4A	reg-
4G	-nans
(8F	de-
8G)	.
4G	-us.
=253-	=253-
4F	in
4G	se-
4F	-cu-
(8G	-la
&(8A&))	.
=254-	=254-
(8G	.
8A)	.
8G	.
8F	.
4A	se-
(8G	-cu-
8A	.
=255-	=255-
8G)	.
4F	-lo-
8F	-rum.
4F	A-
4G	-men.
=256-	=256-
1r	.
=257-	=257-
1r	.
=258-	=258-
1r	.
=259-	=259-
1r	.
=260-	=260-
1r	.
=261-	=261-
1r	.
=262-	=262-
1r	.
=263-	=263-
1r	.
=264-	=264-
1r	.
=265-	=265-
1r	.
=266-	=266-
1r	.
=267-	=267-
1r	.
=268-	=268-
1r	.
=269-	=269-
1r	.
=270-	=270-
1r	.
=271-	=271-
1r	.
=272-	=272-
1r	.
=273-	=273-
1r	.
=274-	=274-
1r	.
=275-	=275-
1r	.
=276-	=276-
1r	.
=277-	=277-
1r	.
=278-	=278-
1r	.
=279-	=279-
1r	.
=280-	=280-
1r	.
=281-	=281-
1r	.
=282-	=282-
1r	.
=283-	=283-
1r	.
=284-	=284-
1r	.
=285-	=285-
1r	.
=286-	=286-
1r	.
=287-	=287-
1r	.
=288-	=288-
1r	.
=289-	=289-
1r	.
=290-	=290-
1r	.
=291-	=291-
1r	.
=292-	=292-
1r	.
=293-	=293-
1r	.
=294-	=294-
1r	.
=295-	=295-
1r	.
=296-	=296-
1r	.
=297-	=297-
1r	.
=298-	=298-
1r	.
=299-	=299-
1r	.
=300-	=300-
1r	.
=301-	=301-
1r	.
=302-	=302-
1r	.
=303-	=303-
1r	.
=304-	=304-
1r	.
=305-	=305-
1r	.
=306-	=306-
1r	.
=307-	=307-
1r	.
=308-	=308-
1r	.
=309-	=309-
1r	.
=310-	=310-
1r	.
=311-	=311-
1r	.
=312-	=312-
1r	.
=313-	=313-
1r	.
=314-	=314-
1r	.
=315-	=315-
1r	.
=316-	=316-
1r	.
=317-	=317-
1r	.
=318-	=318-
1r	.
=319-	=319-
1r	.
=320-	=320-
1r	.
=321-	=321-
1r	.
=322-	=322-
1r	.
=323-	=323-
1r	.
=324-	=324-
1r	.
=325-	=325-
1r	.
=326-	=326-
1r	.
=327-	=327-
1r	.
=328-	=328-
1r	.
=329-	=329-
1r	.
=330-	=330-
1r	.
=331-	=331-
1r	.
=332-	=332-
1r	.
=333-	=333-
1r	.
=334-	=334-
1r	.
=335-	=335-
1r	.
=336-	=336-
1r	.
=337-	=337-
1r	.
=338-	=338-
1r	.
=339-	=339-
1r	.
=340-	=340-
1r	.
=341-	=341-
1r	.
=342-	=342-
1r	.
=343-	=343-
1r	.
=344-	=344-
1r	.
=345-	=345-
1r	.
=346-	=346-
1r	.
=347-	=347-
1r	.
=348-	=348-
1r	.
=349-	=349-
1r	.
=350-	=350-
1r	.
=351-	=351-
1r	.
=352-	=352-
1r	.
=353-	=353-
1r	.
=354-	=354-
1r	.
=355-	=355-
1r	.
=356-	=356-
1r	.
=357-	=357-
1r	.
=358-	=358-
1r	.
=359-	=359-
1r	.
=360-	=360-
1r	.
=361-	=361-
1r	.
=362-	=362-
1r	.
=363-	=363-
1r	.
=364-	=364-
1r	.
=365-	=365-
1r	.
=366-	=366-
1r	.
=367-	=367-
1r	.
=368-	=368-
1r	.
=369-	=369-
1r	.
=370-	=370-
1r	.
=371-	=371-
1r	.
=372-	=372-
1r	.
=373-	=373-
1r	.
=374-	=374-
1r	.
=375-	=375-
1r	.
=376-	=376-
1r	.
==	==
*-	*-
!!!hum2abc: -p "%%nostems" -M none
!!!ENC: Elsa De Luca
!!!RWG: Rhythms and barlines are for alignment only, not found in source.
!!!YEC: Copyright 2009, Elsa De Luca
!!!title: @{OTL}, @{SMS}
